images/revolt-log.svg

<svg height="65.22" viewBox="0 0 193.3 65.22" width="193.3" xmlns="http://www.w3.org/2000/svg"><path d="m0 3.43h19.06l4.65 4.65v11.53l-3.81 3.81 4.41 14.16h-8.62l-3.86-13.07h-3.36v13.07h-8.47zm14 14.9 1.24-1.19v-6.39l-1.24-1.19h-5.53v8.76z"/><path d="m36.88 3.43h19.41v7h-10.94v6.24h9.85v7h-9.85v7h11v7h-19.47z"/><path d="m68.12 3.43h8.66l3.81 27.47 3.82-27.47h8l-5.93 34.15h-12.48z"/><path d="m144.74 3.43h8.47v27h9.21v7.13h-17.68z"/><path d="m177.76 10.75h-7.13v-7.32h22.67v7.33h-7.13v26.82h-8.42z"/><path d="m117.76 29.64 7.79-5.66 12.61-9.16h-15.58l-4.82-14.82-4.82 14.82h-15.58l12.61 9.16-4.8 14.76h.07z" fill="#ef473d"/><path d="m36.66 63.1v-9.52l2.11-2.11h7.39l2.13 2.11v2.89h-3.78v-1.62l-.62-.62h-2.77l-.68.68v6.93l.68.66h2.77l.62-.6v-1.73h3.79v2.93l-2.13 2.11h-7.4z"/><path d="m59.82 63.1v-9.52l2.11-2.11h7.53l2.13 2.11v9.52l-2.13 2.11h-7.53zm7.31-.66.68-.68v-6.85l-.68-.68h-2.85l-.68.68v6.86l.68.68z"/><path d="m83.56 51.47h9.44v2.85h-5.68v2.89h5.08v2.79h-5.08v5.18h-3.76z"/><path d="m104.46 51.47h9.43v2.85h-5.66v2.89h5.08v2.79h-5.08v5.18h-3.77z"/><path d="m125.37 51.47h9.63v2.85h-5.9v2.47h5.32v2.85h-5.32v2.73h5.94v2.85h-9.7z"/><path d="m146.94 51.47h9.66v2.85h-5.9v2.47h5.3v2.85h-5.3v2.73h5.94v2.85h-9.7z"/></svg>

<svg xmlns="http://www.w3.org/2000/svg" width="193.3" height="65.22" viewBox="0 0 193.3 65.22">
  <defs>
    <style>
      .cls-1 {
        fill: #ef473d;
      }
    </style>
  </defs>
  <title>revolt-log</title>
  <g id="Layer_2" data-name="Layer 2">
    <g id="Layer_2-2" data-name="Layer 2">
      <g>
        <g>
          <path d="M0,3.43H19.06l4.65,4.65V19.61L19.9,23.42l4.41,14.16H15.69L11.83,24.51H8.47V37.58H0Zm14,14.9,1.24-1.19V10.75L14,9.56H8.47v8.76Z"/>
          <path d="M36.88,3.43H56.29v7H45.35v6.24H55.2v7H45.35v7h11v7H36.88Z"/>
          <path d="M68.12,3.43h8.66L80.59,30.9,84.41,3.43h8L86.48,37.58H74Z"/>
          <path d="M144.74,3.43h8.47v27h9.21v7.13H144.74Z"/>
          <path d="M177.76,10.75h-7.13V3.43H193.3v7.33h-7.13V37.58h-8.42Z"/>
        </g>
        <polygon class="cls-1" points="117.76 29.64 125.55 23.98 138.16 14.82 122.58 14.82 117.76 0 112.94 14.82 97.36 14.82 109.97 23.98 105.17 38.74 105.24 38.74 117.76 29.64"/>
        <g>
          <path d="M36.66,63.1V53.58l2.11-2.11h7.39l2.13,2.11v2.89H44.51V54.85l-.62-.62H41.12l-.68.68v6.93l.68.66h2.77l.62-.6V60.17H48.3V63.1l-2.13,2.11H38.77Z"/>
          <path d="M59.82,63.1V53.58l2.11-2.11h7.53l2.13,2.11V63.1l-2.13,2.11H61.93Zm7.31-.66.68-.68V54.91l-.68-.68H64.28l-.68.68v6.86l.68.68Z"/>
          <path d="M83.56,51.47H93v2.85H87.32v2.89H92.4V60H87.32v5.18H83.56Z"/>
          <path d="M104.46,51.47h9.43v2.85h-5.66v2.89h5.08V60h-5.08v5.18h-3.77Z"/>
          <path d="M125.37,51.47H135v2.85h-5.9v2.47h5.32v2.85h-5.32v2.73h5.94v2.85h-9.7Z"/>
          <path d="M146.94,51.47h9.66v2.85h-5.9v2.47H156v2.85H150.7v2.73h5.94v2.85h-9.7Z"/>
        </g>
      </g>
    </g>
  </g>
</svg>
